X:1
L:1/8
Q:1/4=200
M:2/2
K:Ador
 eA A2 ABcd | ea a2 gedg | eA A2 eA A2 | BG G2 Bcdg | eA A2 A2 (3Bcd | ea a2 gedB | c2 cd efed | 
 cABG A2 (3Bcd :: eaag a3 g | eaag (3ege dg | (3ege dg (3ege dg | egfa gedg | eaag a3 g | 
 eaag (3ege dB | cBcd efed | cABG A2 (3Bcd :|""^Variations:"" eAAG A2 (3Bcd | eaaf gedg | 
 eA A2 eAcA | BGGF GABd | eAAG ABcd | eaaf gedB | cBcd (3efg ed | cABG A2 (3Bcd :: eaag a3 g | 
 eaag egdg | (3efg dg egdg | eaaf gedg | eaag a3 g | eaag (3efg dB | cBcd (3efg ed | 
 cABG A2 (3Bcd :|
